X: 35448
T: Rowan Tree, The
R: reel
M: 4/4
K: Dmajor
u(DE)|"D"F3FF2E2|"D"(FA3)"D7"A2d2|"G"B3AB2d2|"G"B2A4 "A7"(DE)|"D"F3F"A7"F2E2|
"D7"(FA3)"G"(B3A)|"D"A2F2 "A7"(E3D)|"D"D6 A2u|"D"A2d2"Bm"d3c|"G"(c2B2) (B2d2)|
"D"A3A "Bm"(BA)(GF)|"E7"(F2E4) "A7"(DE)|"D"F3F"A7"F2E2|"D7"(FA3) "G"(B3A)|
"D"A2F2"A7"E3D|"Bm"D6 "E7"(DE)|"D"F4"A"E4|"D"D6||

